src/assets/outline/Screenmirroring.svg

<?xml version="1.0" encoding="UTF-8"?>
<svg width="24" height="24" viewBox="0 0 24 24" xmlns="http://www.w3.org/2000/svg">
 <path d="m15 22.75h-6c-5.43 0-7.75-2.32-7.75-7.75v-6c0-5.43 2.32-7.75 7.75-7.75h6c5.43 0 7.75 2.32 7.75 7.75v6c0 5.43-2.32 7.75-7.75 7.75zm-6-20c-4.61 0-6.25 1.64-6.25 6.25v6c0 4.61 1.64 6.25 6.25 6.25h6c4.61 0 6.25-1.64 6.25-6.25v-6c0-4.61-1.64-6.25-6.25-6.25h-6z"/>
 <path d="m16.4 19.25h-3.8c-1.92 0-2.85-0.93-2.85-2.85v-1.8c0-1.92 0.93-2.85 2.85-2.85h3.8c1.92 0 2.85 0.93 2.85 2.85v1.8c0 1.92-0.93 2.85-2.85 2.85zm-3.8-6c-1.08 0-1.35 0.27-1.35 1.35v1.8c0 1.08 0.27 1.35 1.35 1.35h3.8c1.08 0 1.35-0.27 1.35-1.35v-1.8c0-1.08-0.27-1.35-1.35-1.35h-3.8z"/>
</svg>

<svg width="24" height="24" viewBox="0 0 24 24"  xmlns="http://www.w3.org/2000/svg">
<path d="M15 22.75H9C3.57 22.75 1.25 20.43 1.25 15V9C1.25 3.57 3.57 1.25 9 1.25H15C20.43 1.25 22.75 3.57 22.75 9V15C22.75 20.43 20.43 22.75 15 22.75ZM9 2.75C4.39 2.75 2.75 4.39 2.75 9V15C2.75 19.61 4.39 21.25 9 21.25H15C19.61 21.25 21.25 19.61 21.25 15V9C21.25 4.39 19.61 2.75 15 2.75H9Z" />
<path d="M16.4 19.25H12.6C10.68 19.25 9.75 18.32 9.75 16.4V14.6C9.75 12.68 10.68 11.75 12.6 11.75H16.4C18.32 11.75 19.25 12.68 19.25 14.6V16.4C19.25 18.32 18.32 19.25 16.4 19.25ZM12.6 13.25C11.52 13.25 11.25 13.52 11.25 14.6V16.4C11.25 17.48 11.52 17.75 12.6 17.75H16.4C17.48 17.75 17.75 17.48 17.75 16.4V14.6C17.75 13.52 17.48 13.25 16.4 13.25H12.6Z" />
</svg>
